ALY_Tests/ALY_Button_Style/ALY_Button_Style/Assets/Icons/FIcon.svg

<svg xmlns="http://www.w3.org/2000/svg" id="fIcon" height="100%" width="100%" viewBox="0 0 10 21">
   <path id="fillElement"
      d="M 0.5,20.3943L 0.5,0.500005L 12.9229,0.509557L 12.9229,4.67622L 5.08957,4.67622L 5.08957,7.84289L 11.3396,7.84289L 11.3396,11.8429L 5.00624,11.8429L 5.00624,20.4262L 0.5,20.3943 Z "
      fill-rule="nonzero" fill="transparent" stroke="#000000" stroke-linejoin="Round">
   </path>
</svg>

<svg xmlns="http://www.w3.org/2000/svg" id="fIcon" viewBox="0 0 10 21">
   <path d="m0.5 20.394v-19.894l12.423 0.009552v4.1667h-7.8333v3.1667h6.25v4h-6.3334v8.5833l-4.5062-0.0319z"
      fill="transparent" stroke="#000" stroke-linejoin="Round" id="fillElement" />
</svg>
